Suru++-Ubuntu/apps/symbolic/meld-symbolic.svg

<svg width="16" height="16" version="1.1" xmlns="http://www.w3.org/2000/svg">
 <path d="m4.2949969 0.4999989c-0.6132974 0-1.1608556 0.010865-1.6495855 0.039627-0.2443641 0.014335-0.4740405 0.033236-0.6898292 0.057341-0.074844 0.00822-0.1388551 0.021274-0.2104033 0.030953-0.1003391 0.5635288-0.2251029 1.3326353-0.2916666 1.8492504-0.0560169 0.4347493-0.1027287 0.856396-0.1401399 1.2642279-0.0374085 0.4078411-0.0654854 0.8018127-0.0843677 1.1814216-0.018882 0.379609-0.028561 0.7447823-0.02899 1.0948443-4.236e-4 0.3500711 0.00831 0.6850583 0.026269 1.0042768 0.01796 0.3192094 0.045124 0.6226226 0.081391 0.9096736s0.081756 0.5577581 0.1362585 0.811336c0.054501 0.2535778 0.1180755 0.4900539 0.1907349 0.7088534 0.072662 0.218799 0.154339 0.419911 0.2450826 0.6026171 0.060418 0.121639 0.125486 0.2399 0.1950054 0.354682 0.069521 0.114782 0.14352 0.226021 0.2219199 0.333718 0.078396 0.107706 0.1611313 0.211841 0.248188 0.312243 0.087061 0.100401 0.1784495 0.197095 0.2739393 0.289982 0.09549 0.0929 0.1950839 0.182057 0.298784 0.26721 0.1036992 0.08519 0.211426 0.166324 0.32311 0.243534 0.2233689 0.154418 0.4625194 0.292757 0.7164853 0.414077 0.1372563 0.06556 0.2673387 0.121155 0.3941514 0.167831 0.1268127 0.04666 0.2503337 0.08437 0.3743524 0.114006 0.1240196 0.02958 0.2485834 0.05113 0.3774587 0.06547 0.1288762 0.01434 0.2620867 0.02155 0.4034674 0.02255 0.1869621 9.13e-4 0.3609239-0.0064 0.5302802-0.02547 0.1693563-0.01899 0.3340787-0.04922 0.502846-0.09278 0.1687692-0.04355 0.3414582-0.100493 0.5266571-0.173009 0.185198-0.0725 0.3829325-0.160563 0.6015782-0.266434 0.2573287-0.124607 0.4476518-0.230961 0.6274582-0.359211 0.1798072-0.128259 0.3490987-0.278422 0.5641824-0.490812 0.1562793-0.154336 0.2941164-0.313101 0.4130438-0.475161 0.1189274-0.162052 0.2190002-0.327418 0.2994308-0.49482 0.080432-0.167403 0.1412775-0.3368781 0.1820653-0.5072481 0.040787-0.170369 0.061469-0.341597 0.061469-0.5125515 0-0.1434068-0.0155-0.2898176-0.044512-0.4367215-0.0290186-0.146914-0.0715951-0.2943383-0.1259072-0.4396991-0.0543094-0.1453608-0.1202815-0.2886398-0.1961695-0.4274082-0.0758853-0.1387684-0.1616887-0.2730993-0.2554354-0.4002352-0.0937459-0.1271359-0.1954263-0.2471955-0.3033119-0.3576587-0.1078857-0.1104633-0.2218852-0.2112114-0.3401917-0.2999527-0.1183065-0.0887505-0.2409337-0.1653753-0.3659421-0.2273545-0.1250076-0.0619975-0.2524439-0.1093219-0.3804344-0.1394898-0.0770175-0.0181701-0.1713595-0.0317748-0.2739393-0.0407229-0.1025798-0.0091307-0.2134485-0.0134221-0.323499-0.0133308-0.1100496 1.187e-4 -0.2192839 0.00457-0.3187108 0.01397-0.099427 0.00922-0.1889946 0.023101-0.2597055 0.041362-0.1187238 0.030771-0.2224029 0.067841-0.3110757 0.1105089-0.088677 0.04264-0.1623612 0.090851-0.2210151 0.1437629-0.058656 0.052867-0.1022866 0.1104085-0.1309525 0.1718399-0.028661 0.06145-0.042312 0.1267067-0.041015 0.1950044 0.00128 0.068298 0.017567 0.1396449 0.048785 0.2131197 0.031218 0.073502 0.077346 0.1490861 0.1384571 0.2260671 0.061112 0.076972 0.1371578 0.1554045 0.2281315 0.2342116 0.090978 0.078798 0.1968698 0.1581072 0.3176754 0.2370604 0.082085 0.053689 0.1644093 0.1152751 0.242495 0.180514 0.078086 0.065193 0.1519066 0.1339565 0.2172623 0.2017246 0.065358 0.06775 0.1221259 0.1346414 0.166019 0.1959175 0.043891 0.061267 0.074936 0.1170556 0.088641 0.1627822 0.021457 0.071585 0.031163 0.113102 0.023037 0.1612299-0.00813 0.048119-0.034094 0.102903-0.084112 0.200702-0.031017 0.060628-0.070361 0.1186717-0.1167186 0.1737848-0.046357 0.05515-0.099718 0.107267-0.1589026 0.155797-0.059185 0.04857-0.1242086 0.09354-0.1937106 0.13444-0.069503 0.04091-0.1434469 0.07761-0.2207566 0.109861-0.07731 0.03223-0.1579475 0.0599-0.2405529 0.08245-0.082606 0.02255-0.167196 0.03981-0.2525881 0.0515-0.08539 0.01178-0.1715778 0.01799-0.2572466 0.0179-0.085664-7.3e-5 -0.1708354-0.0064-0.25427-0.01927-0.1541346-0.023925-0.3044525-0.064191-0.4495339-0.11892-0.1450823-0.054785-0.2849034-0.124096-0.4180903-0.206135-0.1331868-0.081994-0.2597849-0.176834-0.3782347-0.2826045-0.1184499-0.1057792-0.2288401-0.2225152-0.3297106-0.3484733-0.1008705-0.1259671-0.1921949-0.2611289-0.2726446-0.4037322-0.0804506-0.1425942-0.1499828-0.2925477-0.2071693-0.4482353-0.0571856-0.1556876-0.1020712-0.3170454-0.1331512-0.4822746-0.0310809-0.1652292-0.0483379-0.3343389-0.0504654-0.505567-0.0024652-0.2002363 0.0097973-0.3600875 0.0458088-0.5182404 0.0360115-0.158162 0.09575-0.3146166 0.1878888-0.5082879 0.0572769-0.1203792 0.1236882-0.2399184 0.1981107-0.3575309 0.0744244-0.1176035 0.1568335-0.2333077 0.2462477-0.3462728 0.089417-0.1129559 0.1857961-0.2231361 0.2880427-0.3295818 0.1022474-0.1064366 0.2103175-0.2091388 0.3232405-0.3071934 0.1129231-0.0980455 0.2306543-0.1914617 0.3520963-0.2792442 0.1214411-0.0877461 0.2466797-0.1699498 0.3744821-0.2455977 0.1278024-0.0756022 0.2582637-0.1447581 0.390269-0.2063904 0.1320053-0.0616322 0.2655346-0.1157408 0.399586-0.1614947 0.1486506-0.0507667 0.3035886-0.0915079 0.4631211-0.1224062 0.1595326-0.030862 0.323656-0.051954 0.4908127-0.06355 0.1671558-0.011505 0.3372763-0.013513 0.5087984-0.00639 0.171523 0.0073 0.3444502 0.023831 0.5170808 0.04958 0.1726314 0.025657 0.3450465 0.060445 0.5155286 0.1040353 0.1704811 0.043553 0.3390659 0.096101 0.5041407 0.1570937 0.1650749 0.060993 0.3266385 0.1305508 0.4830483 0.2084631 0.1564111 0.077885 0.3076341 0.1641882 0.4521221 0.2585449 0.172284 0.1124994 0.331728 0.2309337 0.479167 0.3572661 0.14744 0.1263324 0.282809 0.260499 0.406962 0.4042436 0.124154 0.1437538 0.237119 0.2970766 0.339544 0.461831 0.102427 0.1647543 0.1944 0.3409312 0.276657 0.5302838 0.08226 0.1893433 0.15478 0.3919354 0.218425 0.6094652 0.06364 0.2175299 0.118393 0.4499701 0.164985 0.6992748 0.04659 0.2493047 0.08511 0.5154099 0.1162 0.8000778 0.0311 0.2846679 0.05478 0.587999 0.07195 0.9116185 0.02221 0.4187345 0.02485 0.8902806 0.0098 1.3957106-0.01502 0.505421-0.04775 1.044726-0.09614 1.598603-0.04839 0.553869-0.112426 1.122392-0.190347 1.686459-0.07792 0.564068-0.169698 1.123679-0.273291 1.659678 0.133827-0.01817 0.271129-0.03479 0.393763-0.0578 0.755697-0.142165 1.303294-0.38286 1.697592-0.776658 0.788597-0.787587 0.963898-2.187817 0.963898-4.638716v-3.9255886c0-3.369987-0.331418-4.7536171-2.132893-5.2893337-0.163741-0.0486667-0.339643-0.090394-0.528567-0.1259124-0.188925-0.0355184-0.390835-0.0649193-0.606625-0.0890243-0.215789-0.0241051-0.445464-0.0430056-0.689829-0.0573409-0.488729-0.0286704-1.0362887-0.0396272-1.6495865-0.0396272z" style="fill:#808080"/>
</svg>

<svg xmlns="http://www.w3.org/2000/svg" width="16" height="16" version="1.1">
 <path style="fill:#808080" d="m 4.2949969,0.4999989 c -0.6132974,0 -1.1608556,0.010865 -1.6495855,0.039627 -0.2443641,0.014335 -0.4740405,0.033236 -0.6898292,0.057341 -0.074844,0.00822 -0.1388551,0.021274 -0.2104033,0.030953 C 1.6448398,1.1914487 1.520076,1.9605552 1.4535123,2.4771703 1.3974954,2.9119196 1.3507836,3.3335663 1.3133724,3.7413982 1.2759639,4.1492393 1.247887,4.5432109 1.2290047,4.9228198 c -0.018882,0.379609 -0.028561,0.7447823 -0.02899,1.0948443 -4.236e-4,0.3500711 0.00831,0.6850583 0.026269,1.0042768 0.01796,0.3192094 0.045124,0.6226226 0.081391,0.9096736 0.036267,0.287051 0.081756,0.5577581 0.1362585,0.811336 0.054501,0.2535778 0.1180755,0.4900539 0.1907349,0.7088534 0.072662,0.218799 0.154339,0.419911 0.2450826,0.6026171 0.060418,0.121639 0.125486,0.2399 0.1950054,0.354682 0.069521,0.114782 0.14352,0.226021 0.2219199,0.333718 0.078396,0.107706 0.1611313,0.211841 0.248188,0.312243 0.087061,0.100401 0.1784495,0.197095 0.2739393,0.289982 0.09549,0.0929 0.1950839,0.182057 0.298784,0.26721 0.1036992,0.08519 0.211426,0.166324 0.32311,0.243534 0.2233689,0.154418 0.4625194,0.292757 0.7164853,0.414077 0.1372563,0.06556 0.2673387,0.121155 0.3941514,0.167831 0.1268127,0.04666 0.2503337,0.08437 0.3743524,0.114006 0.1240196,0.02958 0.2485834,0.05113 0.3774587,0.06547 0.1288762,0.01434 0.2620867,0.02155 0.4034674,0.02255 0.1869621,9.13e-4 0.3609239,-0.0064 0.5302802,-0.02547 0.1693563,-0.01899 0.3340787,-0.04922 0.502846,-0.09278 0.1687692,-0.04355 0.3414582,-0.100493 0.5266571,-0.173009 0.185198,-0.0725 0.3829325,-0.160563 0.6015782,-0.266434 0.2573287,-0.124607 0.4476518,-0.230961 0.6274582,-0.359211 0.1798072,-0.128259 0.3490987,-0.278422 0.5641824,-0.490812 0.1562793,-0.154336 0.2941164,-0.313101 0.4130438,-0.475161 0.1189274,-0.162052 0.2190002,-0.327418 0.2994308,-0.49482 0.080432,-0.167403 0.1412775,-0.3368781 0.1820653,-0.5072481 0.040787,-0.170369 0.061469,-0.341597 0.061469,-0.5125515 0,-0.1434068 -0.0155,-0.2898176 -0.044512,-0.4367215 C 9.9420929,8.6585919 9.8995164,8.5111676 9.8452043,8.3658068 9.7908949,8.220446 9.7249228,8.077167 9.6490348,7.9383986 9.5731495,7.7996302 9.4873461,7.6652993 9.3935994,7.5381634 9.2998535,7.4110275 9.1981731,7.2909679 9.0902875,7.1805047 8.9824018,7.0700414 8.8684023,6.9692933 8.7500958,6.880552 8.6317893,6.7918015 8.5091621,6.7151767 8.3841537,6.6531975 8.2591461,6.5912 8.1317098,6.5438756 8.0037193,6.5137077 7.9267018,6.4955376 7.8323598,6.4819329 7.72978,6.4729848 7.6272002,6.4638541 7.5163315,6.4595627 7.406281,6.459654 7.2962314,6.4597727 7.1869971,6.464224 7.0875702,6.473624 6.9881432,6.482844 6.8985756,6.496725 6.8278647,6.514986 6.7091409,6.545757 6.6054618,6.582827 6.516789,6.6254949 6.428112,6.6681349 6.3544278,6.7163459 6.2957739,6.7692578 6.2371179,6.8221248 6.1934873,6.8796663 6.1648214,6.9410977 c -0.028661,0.06145 -0.042312,0.1267067 -0.041015,0.1950044 0.00128,0.068298 0.017567,0.1396449 0.048785,0.2131197 0.031218,0.073502 0.077346,0.1490861 0.1384571,0.2260671 0.061112,0.076972 0.1371578,0.1554045 0.2281315,0.2342116 0.090978,0.078798 0.1968698,0.1581072 0.3176754,0.2370604 0.082085,0.053689 0.1644093,0.1152751 0.242495,0.180514 0.078086,0.065193 0.1519066,0.1339565 0.2172623,0.2017246 0.065358,0.06775 0.1221259,0.1346414 0.166019,0.1959175 0.043891,0.061267 0.074936,0.1170556 0.088641,0.1627822 0.021457,0.071585 0.031163,0.113102 0.023037,0.1612299 -0.00813,0.048119 -0.034094,0.102903 -0.084112,0.200702 -0.031017,0.060628 -0.070361,0.1186717 -0.1167186,0.1737848 -0.046357,0.05515 -0.099718,0.107267 -0.1589026,0.155797 -0.059185,0.04857 -0.1242086,0.09354 -0.1937106,0.13444 -0.069503,0.04091 -0.1434469,0.07761 -0.2207566,0.109861 -0.07731,0.03223 -0.1579475,0.0599 -0.2405529,0.08245 -0.082606,0.02255 -0.167196,0.03981 -0.2525881,0.0515 -0.08539,0.01178 -0.1715778,0.01799 -0.2572466,0.0179 -0.085664,-7.3e-5 -0.1708354,-0.0064 -0.25427,-0.01927 C 5.6613171,9.8319689 5.5109992,9.7917029 5.3659178,9.7369739 5.2208355,9.6821889 5.0810144,9.6128779 4.9478275,9.5308389 4.8146407,9.4488449 4.6880426,9.3540049 4.5695928,9.2482344 4.4511429,9.1424552 4.3407527,9.0257192 4.2398822,8.8997611 4.1390117,8.773794 4.0476873,8.6386322 3.9672376,8.4960289 3.886787,8.3534347 3.8172548,8.2034812 3.7600683,8.0477936 3.7028827,7.892106 3.6579971,7.7307482 3.6269171,7.565519 3.5958362,7.4002898 3.5785792,7.2311801 3.5764517,7.059952 3.5739865,6.8597157 3.586249,6.6998645 3.6222605,6.5417116 3.658272,6.3835496 3.7180105,6.227095 3.8101493,6.0334237 3.8674262,5.9130445 3.9338375,5.7935053 4.00826,5.6758928 4.0826844,5.5582893 4.1650935,5.4425851 4.2545077,5.32962 4.3439247,5.2166641 4.4403038,5.1064839 4.5425504,5.0000382 4.6447978,4.8936016 4.7528679,4.7908994 4.8657909,4.6928448 4.978714,4.5947993 5.0964452,4.5013831 5.2178872,4.4136006 5.3393283,4.3258545 5.4645669,4.2436508 5.5923693,4.1680029 5.7201717,4.0924007 5.850633,4.0232448 5.9826383,3.9616125 6.1146436,3.8999803 6.2481729,3.8458717 6.3822243,3.8001178 6.5308749,3.7493511 6.6858129,3.7086099 6.8453454,3.6777116 c 0.1595326,-0.030862 0.323656,-0.051954 0.4908127,-0.06355 0.1671558,-0.011505 0.3372763,-0.013513 0.5087984,-0.00639 0.171523,0.0073 0.3444502,0.023831 0.5170808,0.04958 0.1726314,0.025657 0.3450465,0.060445 0.5155286,0.1040353 0.1704811,0.043553 0.3390659,0.096101 0.5041407,0.1570937 0.1650749,0.060993 0.3266385,0.1305508 0.4830483,0.2084631 0.1564111,0.077885 0.3076341,0.1641882 0.4521221,0.2585449 0.172284,0.1124994 0.331728,0.2309337 0.479167,0.3572661 0.14744,0.1263324 0.282809,0.260499 0.406962,0.4042436 0.124154,0.1437538 0.237119,0.2970766 0.339544,0.461831 0.102427,0.1647543 0.1944,0.3409312 0.276657,0.5302838 0.08226,0.1893433 0.15478,0.3919354 0.218425,0.6094652 0.06364,0.2175299 0.118393,0.4499701 0.164985,0.6992748 0.04659,0.2493047 0.08511,0.5154099 0.1162,0.8000778 0.0311,0.2846679 0.05478,0.587999 0.07195,0.9116185 0.02221,0.4187345 0.02485,0.8902806 0.0098,1.3957106 -0.01502,0.505421 -0.04775,1.044726 -0.09614,1.598603 -0.04839,0.553869 -0.112426,1.122392 -0.190347,1.686459 -0.07792,0.564068 -0.169698,1.123679 -0.273291,1.659678 0.133827,-0.01817 0.271129,-0.03479 0.393763,-0.0578 0.755697,-0.142165 1.303294,-0.38286 1.697592,-0.776658 0.788597,-0.787587 0.963898,-2.187817 0.963898,-4.638716 V 6.1012374 c 0,-3.369987 -0.331418,-4.7536171 -2.132893,-5.2893337 C 12.599408,0.763237 12.423506,0.7215097 12.234582,0.6859913 12.045657,0.6504729 11.843747,0.621072 11.627957,0.596967 11.412168,0.5728619 11.182493,0.5539614 10.938128,0.5396261 10.449399,0.5109557 9.9018393,0.4999989 9.2885415,0.4999989 Z"/>
</svg>
